!!!OTL: Ritter und Magd.
!!!OTL-incipit: Es spielt' ein Graf mit einer Dam',
!!!ARE: Europa, Mitteleuropa, Deutschland (BRD), Hessen, Oberhessen, Kr. Alsfeld,
!!    Maulbach
!!!YOR: 3, S. 13
!!    1842 aufgezeichnet
!!!SCT: Q0055E
!!!YEM: Copyright 1995, estate of Helmut Schaffrath.
**kern	**text
*ICvox	*
!!MX
!!mixed meter: 3/4, 2/4
*M3/4	*
*k[f#]	*
*G:	*
{8d	1._Es
8g	ſpielt'
8a	ein
=1	=1
4.b	Graf
8a	mit
8b	ei-
8cc	-ner
=2	=2
4.dd}	Dam',
{8b	das
8cc	war
8dd	die
=3	=3
*M2/4	*
4ee	ho-
4dd	-he
=:	=:
4cc	Da-
4b;	-me,
8r}	.
=:	=:
{16r	.
16gL	und
16aJ	.
8b	als
8dd	die
=5	=5
*M3/4	*
4.cc	Dam'
8dd	ge-
8b	-ſpie-
8dd	-let
=6	=6
4a	war,
8r}	.
{16gL	da
16aJ	.
8b	fing
8dd	ſie
=7	=7
*M2/4	*
4.b	an
8dd	ʒu
=:	=:
4a	wei-
4g	-nen.
=:	=:
8r}	.
==	==
!!!AGN: Ballade, Betrug, Schwangerschaft, Tod, Selbstmord, Herr und Magd
!! Moeglicher Taktwechsel zum 2/4 angemerkt.
!!!ONB: ESAC (Essen Associative Code) Database: BALLADE
!!!AMT: simple triple
!!!AIN: vox
!!!EED: Helmut Schaffrath
!!!EEV: 1.0
!!@@COMMENT:"b: R1629. Maulbach Kr. Alsfeld (Oberheſſen), 1842."
!!@@END:
!!!source: Deutsche Volkslieder mit ihren Melodien. Herausgegeben vom Deutschen Volksliedarchiv. Dritter Band Balladen. Berlin 1954.
!!!page: 13
!!!ENC: Anna Maria Matuszewska
!!!EEV: 2025/02/18
*-	*-
